X:0151
T:O gin ye were dead Gudeman.
N:Aird prints a quaver anacrusis for the second part
N:Aird uses a 1-sharp signature and accidentals on the Cs
M:C
L:1/8
Q:1/4=104
I: :: ::
Z:Jack Campin * www.campin.me.uk * 2009
K:D
A,B,|D2D2 A2D2|F2E2 E3  F |D2D2     A2D2|F2d2 A3
A   |BcdA FGAF|BAGF E3  F |D2d2     ABAG|F2D2 D2:|
A2  |d3 e defd|edef e2(dB)|ABde {de}f3 e|d2d2 A3
A   |BcdA FGAF|BAGF E2 FE |D2d2     ABAG|F2D2 D2:|

